docs/img/copy.svg

<svg width="13" height="15" viewBox="0 0 13 15" fill="none" xmlns="http://www.w3.org/2000/svg">
<path fill-rule="evenodd" clip-rule="evenodd" d="M3.688 0.0235065C3.54507 0.0640591 3.35943 0.256288 3.31765 0.407026C3.24534 0.667889 3.35278 0.942074 3.58144 1.08016L3.69673 1.1498L7.29278 1.16447L10.8888 1.17914L11.117 1.28874C11.3919 1.42072 11.5632 1.59065 11.6962 1.86343L11.7918 2.05944L11.8069 6.72505L11.822 11.3907L11.8937 11.5027C11.9331 11.5643 12.0205 11.6501 12.0878 11.6934C12.1898 11.759 12.2438 11.7721 12.411 11.7721C12.5782 11.7721 12.6322 11.759 12.7342 11.6934C12.8015 11.6501 12.8889 11.5643 12.9283 11.5027L13 11.3907V6.68104C13 2.37406 12.9957 1.95636 12.9496 1.79535C12.8174 1.33322 12.6205 0.993132 12.3068 0.684849C12.0988 0.480531 11.7496 0.252796 11.5115 0.166262C11.0405 -0.00492736 11.3259 0.00654595 7.3969 0.000706596C5.16136 -0.00263856 3.74953 0.0060471 3.688 0.0235065ZM1.95992 2.41121C0.942542 2.61295 0.186954 3.3765 0.0284059 4.36308C0.00230841 4.52556 -0.0044274 5.69017 0.00261046 8.82311C0.0129709 13.4452 1.27323e-05 13.0937 0.177258 13.5539C0.37752 14.0739 0.964713 14.6443 1.50059 14.8393C1.9672 15.0091 1.74954 14.9999 5.29762 14.9999C8.8457 14.9999 8.62804 15.0091 9.09465 14.8393C9.63068 14.6442 10.2174 14.0742 10.4182 13.5535C10.5949 13.0954 10.5836 13.4282 10.5836 8.69107C10.5836 4.72653 10.5792 4.33289 10.5332 4.17217C10.401 3.71004 10.2041 3.36995 9.89035 3.06167C9.68239 2.85735 9.33318 2.62962 9.0951 2.54308C8.62638 2.37271 8.8698 2.38354 5.37313 2.37767C2.80196 2.37336 2.11684 2.38011 1.95992 2.41121ZM8.67096 3.64883C8.95178 3.77806 9.12667 3.94441 9.26253 4.21149L9.37535 4.43321V8.69107V12.9489L9.26253 13.1706C9.12667 13.4377 8.95178 13.6041 8.67096 13.7333L8.46919 13.8262H5.29762H2.12605L1.92428 13.7333C1.64346 13.6041 1.46857 13.4377 1.33271 13.1706L1.21989 12.9489V8.69259V4.43626L1.31549 4.24025C1.36805 4.13247 1.46658 3.98575 1.53439 3.91427C1.66771 3.77378 1.94162 3.617 2.12962 3.5736C2.198 3.55781 3.54329 3.54848 5.35803 3.55124L8.46919 3.55596L8.67096 3.64883Z" fill="black" fill-opacity="0.3"/>
</svg>

<svg width="13" height="15" fill="none" xmlns="http://www.w3.org/2000/svg"><path fill-rule="evenodd" clip-rule="evenodd" d="M3.688.024c-.143.04-.329.232-.37.383a.597.597 0 00.263.673l.116.07 3.596.014 3.596.015.228.11c.275.132.446.302.58.574l.095.196.015 4.666.015 4.666.072.112a.78.78 0 00.194.19c.102.066.156.08.323.08s.221-.014.323-.08a.763.763 0 00.194-.19L13 11.39V6.68c0-4.307-.004-4.725-.05-4.886-.133-.462-.33-.802-.643-1.11a2.63 2.63 0 00-.796-.519c-.47-.17-.185-.16-4.114-.165C5.16-.003 3.75.006 3.688.024zM1.96 2.41C.943 2.613.187 3.377.028 4.363c-.026.163-.032 1.327-.025 4.46.01 4.622-.003 4.27.174 4.73.2.52.788 1.091 1.324 1.286.466.17.249.16 3.797.16s3.33.01 3.797-.16c.536-.195 1.122-.765 1.323-1.286.177-.458.166-.125.166-4.862 0-3.964-.005-4.358-.05-4.519-.133-.462-.33-.802-.644-1.11a2.63 2.63 0 00-.795-.519c-.469-.17-.225-.16-3.722-.165-2.571-.005-3.256.002-3.413.033zm6.71 1.24c.28.13.456.295.592.562l.112.222v8.516l-.112.222a1.15 1.15 0 01-.592.562l-.202.093H2.126l-.202-.093a1.15 1.15 0 01-.591-.562l-.113-.222V4.436l.095-.196c.053-.108.152-.254.22-.326.133-.14.407-.297.595-.34.068-.016 1.413-.026 3.228-.023l3.111.005.202.093z" fill="#000" fill-opacity=".3"/></svg>
